src/icons/editor/glyph/UnlinkIcon.svg

<svg width="24" height="24" viewBox="0 0 24 24" fill="none" xmlns="http://www.w3.org/2000/svg">
<path d="M8.16558 4.99999L6.60679 3.44363L8.02321 2.02942L10.9984 4.99999H8.16558Z" fill="currentColor"/>
<path d="M13 5L15.9752 2.02942L17.3917 3.44363L15.8329 5H13Z" fill="currentColor"/>
<path d="M17.0235 6.98437C18.4006 6.98437 19.5743 7.47655 20.5446 8.46093C21.5149 9.4453 22 10.625 22 12C22 13.375 21.5149 14.5547 20.5446 15.5391C19.5743 16.5234 18.4006 17.0156 17.0235 17.0156H12.9859V15H17.0235C17.8685 15 18.5962 14.7891 19.2066 14.1797C19.8169 13.5703 20.0125 12.8437 20.0125 12C20.0125 11.1562 19.8169 10.4297 19.2066 9.8203C18.5962 9.21093 17.8529 8.99999 17.0078 8.99999H12.9859V6.98437H17.0235Z" fill="currentColor"/>
<path d="M3.98748 12C3.98748 12.8437 4.1831 13.5703 4.79343 14.1797C5.40376 14.7891 6.14711 15 6.99218 15H10.9984L11.0141 17.0156H6.97653C5.59937 17.0156 4.42567 16.5234 3.4554 15.5391C2.48513 14.5547 2 13.375 2 12C2 10.625 2.48513 9.4453 3.4554 8.46093C4.42567 7.47655 5.59937 6.98437 6.97653 6.98437H11.0141L10.9984 8.99999H6.97653C6.13146 8.99999 5.40376 9.21093 4.79343 9.8203C4.1831 10.4297 3.98748 11.1562 3.98748 12Z" fill="currentColor"/>
<path d="M6.60679 20.5564L8.16558 19H10.9984L8.02321 21.9706L6.60679 20.5564Z" fill="currentColor"/>
<path d="M15.9752 21.9706L13 19H15.8329L17.3917 20.5564L15.9752 21.9706Z" fill="currentColor"/>
</svg>

<svg xmlns="http://www.w3.org/2000/svg" width="24" height="24" fill="currentColor" viewBox="0 0 24 24">
  <path d="m8.166 5-1.56-1.556 1.417-1.415L10.998 5H8.166ZM13 5l2.975-2.97 1.417 1.414L15.832 5H13Zm4.023 1.984c1.378 0 2.551.493 3.522 1.477C21.515 9.445 22 10.625 22 12s-.485 2.555-1.455 3.54c-.97.983-2.144 1.476-3.522 1.476h-4.037V15h4.037c.846 0 1.573-.21 2.184-.82.61-.61.805-1.336.805-2.18 0-.844-.195-1.57-.805-2.18-.61-.61-1.354-.82-2.2-.82h-4.021V6.984h4.037ZM3.987 12c0 .844.196 1.57.806 2.18.61.61 1.354.82 2.2.82h4.005l.016 2.016H6.977c-1.378 0-2.551-.493-3.522-1.477C2.485 14.555 2 13.375 2 12s.485-2.555 1.455-3.54c.97-.983 2.144-1.476 3.522-1.476h4.037L10.998 9H6.977c-.846 0-1.573.21-2.184.82-.61.61-.806 1.336-.806 2.18Zm2.62 8.556L8.166 19h2.832l-2.975 2.97-1.416-1.414Zm9.368 1.414L13 19h2.833l1.559 1.556-1.417 1.415Z"/>
</svg>
